img/logos/astrocoders.svg

<svg width="222" height="223" viewBox="0 0 222 223" xmlns="http://www.w3.org/2000/svg" xmlns:xlink="http://www.w3.org/1999/xlink"><use xlink:href="#path0_fill" fill="#844FE1"/><defs><path id="path0_fill" fill-rule="evenodd" d="M153 11c-11-7-23-11-36-11-7 0-14 1-20 3-13 0-25 3-37 9-6 4-11 8-16 13-10 6-20 15-27 26-3 6-5 12-7 19C3 80 0 93 0 106c0 7 1 14 3 20-1 12 2 25 9 36 3 6 7 12 12 16 6 11 15 21 26 27 6 4 13 6 19 8 11 6 23 10 36 10 7 0 14-1 20-3 13 1 25-2 37-9 6-3 11-8 16-13 11-5 20-14 27-26 3-6 6-12 7-19 7-10 10-22 10-36 0-7-1-13-3-20 1-12-2-25-9-36-3-6-7-11-12-16-6-11-15-20-26-27-6-3-13-6-19-7zm61 131c1-25-11-49-34-62-15-9-31-11-46-9 13 0 27 2 39 9 32 19 43 61 25 93-4 6-8 12-13 16 13-21 15-48 2-71-9-14-21-24-36-30 12 6 22 15 29 27 19 33 8 74-25 93-6 4-12 6-19 8 22-12 37-34 37-61 0-16-6-32-16-43 8 10 12 23 12 37 0 38-30 68-68 68-7 0-14-1-20-3 25 1 49-11 62-34 8-14 11-30 8-45 1 13-2 26-9 38-18 33-60 44-92 25-7-3-12-8-16-13 20 14 48 15 70 2 15-8 25-21 30-35-5 12-15 22-27 29-32 18-74 7-92-25-4-6-6-13-8-19 11 22 34 37 61 37 16 0 31-6 43-16-11 7-24 12-38 12-37 0-68-31-68-68 0-7 1-14 3-20-1 24 11 49 34 62 15 8 31 10 46 8-13 1-26-2-39-9-32-19-43-60-24-93 3-6 7-11 12-16-13 21-15 48-2 71 9 14 21 25 36 30-12-6-22-15-29-27-19-33-8-74 25-93 6-3 12-6 19-7-22 11-37 34-37 60 0 17 6 32 16 44-8-11-12-24-12-38 0-38 31-68 68-68 7 0 14 1 20 3-24-1-49 11-62 34-8 14-11 30-8 45-1-12 2-26 9-38 19-32 60-44 93-25 6 4 11 8 15 13-20-13-48-15-70-2-15 8-25 21-30 35 6-11 15-21 27-28 32-19 74-8 93 25 3 6 6 12 7 18-11-21-34-36-60-36-17 0-32 5-44 15 11-7 24-11 38-11 37 0 68 30 68 68 0 7-1 13-3 20z"/></defs></svg>

<svg width="222" height="223" viewBox="0 0 222 223" version="1.1" xmlns="http://www.w3.org/2000/svg" xmlns:xlink="http://www.w3.org/1999/xlink">
<title>Vector</title>
<desc>Created using Figma</desc>
<g id="Canvas" transform="translate(4974 3982)">
<g id="Vector">
<use xlink:href="#path0_fill" transform="translate(-4974 -3982)" fill="#844FE1"/>
</g>
</g>
<defs>
<path id="path0_fill" fill-rule="evenodd" d="M 153 11C 142 4 130 0 117 0C 110 0 103 1 97 3C 84 3 72 6 60 12C 54 16 49 20 44 25C 34 31 24 40 17 51C 14 57 12 63 10 70C 3 80 0 93 0 106C 0 113 1 120 3 126C 2 138 5 151 12 162C 15 168 19 174 24 178C 30 189 39 199 50 205C 56 209 63 211 69 213C 80 219 92 223 105 223C 112 223 119 222 125 220C 138 221 150 218 162 211C 168 208 173 203 178 198C 189 193 198 184 205 172C 208 166 211 160 212 153C 219 143 222 131 222 117C 222 110 221 104 219 97C 220 85 217 72 210 61C 207 55 203 50 198 45C 192 34 183 25 172 18C 166 15 159 12 153 11ZM 214 142C 215 117 203 93 180 80C 165 71 149 69 134 71C 147 71 161 73 173 80C 205 99 216 141 198 173C 194 179 190 185 185 189C 198 168 200 141 187 118C 178 104 166 94 151 88C 163 94 173 103 180 115C 199 148 188 189 155 208C 149 212 143 214 136 216C 158 204 173 182 173 155C 173 139 167 123 157 112C 165 122 169 135 169 149C 169 187 139 217 101 217C 94 217 87 216 81 214C 106 215 130 203 143 180C 151 166 154 150 151 135C 152 148 149 161 142 173C 124 206 82 217 50 198C 43 195 38 190 34 185C 54 199 82 200 104 187C 119 179 129 166 134 152C 129 164 119 174 107 181C 75 199 33 188 15 156C 11 150 9 143 7 137C 18 159 41 174 68 174C 84 174 99 168 111 158C 100 165 87 170 73 170C 36 170 5 139 5 102C 5 95 6 88 8 82C 7 106 19 131 42 144C 57 152 73 154 88 152C 75 153 62 150 49 143C 17 124 6 83 25 50C 28 44 32 39 37 34C 24 55 22 82 35 105C 44 119 56 130 71 135C 59 129 49 120 42 108C 23 75 34 34 67 15C 73 12 79 9 86 8C 64 19 49 42 49 68C 49 85 55 100 65 112C 57 101 53 88 53 74C 53 36 84 6 121 6C 128 6 135 7 141 9C 117 8 92 20 79 43C 71 57 68 73 71 88C 70 76 73 62 80 50C 99 18 140 6 173 25C 179 29 184 33 188 38C 168 25 140 23 118 36C 103 44 93 57 88 71C 94 60 103 50 115 43C 147 24 189 35 208 68C 211 74 214 80 215 86C 204 65 181 50 155 50C 138 50 123 55 111 65C 122 58 135 54 149 54C 186 54 217 84 217 122C 217 129 216 135 214 142Z"/>
</defs>
</svg>
